X:11848
T:no name
R:reel
Z:id:hn-reel-360
M:C|
K:G
DEGA B2GA|B2GB AGED|EAAG A2EA|~A2BG AGEG|
DEGA B2GA|B2GB AGE2|Be~e2 d2ge|1 dBAB G3E:|2 dBAB G3B||
|:dggf g2dg|~g2fg egdg|eaag a2eg|a2ga faea|
dggf g2dg|~g2fg egd2|Be~e2 d2ge|1 dBAB G3B:|2 dBAB G3E||
